X: 570
T: Absolute Crap
R: waltz
M: 3/4
K: Dmajor
A>G|F2A2d2|f4 f>e|d2d>c d>B|A4A>G|F2A2f2|a2A3f|a>A g>A f>A|e4 A>G|F2A2d2|
f4 f>e|d2 d>c d>B|A4 A>G|F>A d>A f>A|a2A2>f2|g>A f>A e>A|1 d4:|2 d6||
|:d2>c2 (3Bcd|A2>d2 (3Bcd|B2>A2 (3GAB|A4 A>G|F2A2f2|a2A2>f2|a>A g>A f>A|e4 fg|
a2 a>g (3fga|f2 f>e (3def|(3Bcd G>B d>B|A4 A>G|F>A d>A f>A|a2 A2>f2|g>Af>Ae>A|d4:|

